!!!COM: Paul Hindemith
!!!OTL: [T658_Hin-w77p35m62-70]
**kern	**kern	**dynam	**kern	**kern	**dynam
*	*grp:A	*	*grp:B	*grp:C	*
*part2	*part2	*part2	*part1	*part1	*part1
*staff4	*staff3	*	*staff2	*staff1	*
*I"Piano II	*	*	*I"Piano I	*	*
*I'Pno. II	*	*	*I'Pno. I	*	*
*ICklav	*ICklav	*	*ICklav	*ICklav	*
*Ipiano	*Ipiano	*	*Ipiano	*Ipiano	*
*clefF4	*clefG2	*	*clefF4	*clefG2	*
*k[]	*k[]	*	*k[]	*k[]	*
*C:	*C:	*	*C:	*C:	*
*M6/4	*M6/4	*	*M6/4	*M6/4	*
=1	=1	=1	=1	=1	=1
!	!	!	!	!LO:TX:t=[[half]=104]	!LO:DY:ed=brack
[1.GGG [1.GG	4r	.	2%3r	(2een	p
.	2a	p	.	.	.
.	.	.	.	2dd)	.
.	4d	.	.	.	.
.	4e	.	.	4r	.
.	[4B	.	.	(4d	.
=2	=2	=2	=2	=2	=2
1.GGG] 1.GG]	4B]	.	2%3r	2cc	.
.	(4g	.	.	.	.
.	4e	.	.	2b-X)	.
.	4f#X	.	.	.	.
.	4g#X	.	.	4r	.
.	4a	.	.	(4d	.
=3	=3	=3	=3	=3	=3
[1.GGG [1.GG	2d)	.	2%3r	2a	.
.	(4cc	.	.	2g)	.
.	2dd)	.	.	.	.
.	.	.	.	4r	.
.	(4g	.	.	(4B	.
=4	=4	=4	=4	=4	=4
1.GGG_ 1.GG_	4b-X	.	2%3r	2c)	.
.	2cc)	.	.	.	.
.	.	.	.	2d	.
.	2f	.	.	.	.
.	.	.	.	2e	.
.	4e	.	.	.	.
=5	=5	=5	=5	=5	=5
1.GGG_ 1.GG_	(2a	.	2%3r	2f#X	.
.	4g)	.	.	2g	.
.	2c	.	.	.	.
.	.	.	.	2a	.
.	4B	.	.	.	.
=6	=6	=6	=6	=6	=6
1.GGG_ 1.GG_	2e	.	4r	1b	p
.	.	.	2D	.	.
.	2c	.	.	.	.
.	.	.	4GG	.	.
.	2a	.	4AA	2ccT	.
.	.	.	[4EE	.	.
=7	=7	=7	=7	=7	=7
1.GGG_ 1.GG_	2f#X	.	4EE]	1dd	.
.	.	.	(4C	.	.
.	2e	.	4AA	.	.
.	.	.	4BB	.	.
.	2b	.	4C#X	2eenit	.
.	.	.	4D	.	.
=8	=8	=8	=8	=8	=8
1.GGG_ 1.GG_	2a	.	2GG)	1dd	.
.	2d	.	(4F	.	.
.	.	.	2G)	.	.
.	2cc	.	.	2ggt	.
.	.	.	(4C	.	.
=9	=9	=9	=9	=9	=9
1.GGG] 1.GG]	2b-X	>	4E-X	2.dd	>
.	.	.	2F)	.	.
.	2a	.	.	.	.
.	.	.	2BB-X	4ee	.
.	2een	.	.	2ccT	.
.	.	]]	4AA	.	]]
=	=	=	=	=	=
*-	*-	*-	*-	*-	*-
!!!system-decoration: [({(s1,s2)})][({(s3,s4)})]
